icons/social_distancing_alt_fill.svg

<svg width="48" height="48" viewBox="0 0 48 48" fill="none" xmlns="http://www.w3.org/2000/svg">
<path d="M20 10C20 7.79086 21.7909 6 24 6C26.2091 6 28 7.79086 28 10C28 12.2091 26.2091 14 24 14C21.7909 14 20 12.2091 20 10Z" fill="black"/>
<path d="M19.0332 18.1556C20.3418 16.7816 22.1273 16 24 16C25.8727 16 27.6582 16.7816 28.9668 18.1556C30.2738 19.5279 31 21.3792 31 23.3V26C31 26.5523 30.5523 27 30 27H28.3379L27.5669 35.0948C27.518 35.608 27.087 36 26.5714 36H21.4286C20.913 36 20.482 35.608 20.4331 35.0948L19.6621 27H18C17.4477 27 17 26.5523 17 26V23.3C17 21.3792 17.7262 19.5279 19.0332 18.1556Z" fill="black"/>
<path d="M13.4945 29.9498C14.0191 29.7771 14.3044 29.2119 14.1317 28.6873C13.959 28.1627 13.3937 27.8774 12.8691 28.0502C10.9122 28.6944 9.24047 29.5247 8.03759 30.52C6.83974 31.5111 6 32.7625 6 34.2261C6 35.5264 6.66549 36.6629 7.65027 37.5906C8.63311 38.5165 10.0014 39.3042 11.6091 39.9448C14.8301 41.2283 19.2114 42 24 42C28.7886 42 33.1699 41.2283 36.3909 39.9448C37.9986 39.3042 39.3669 38.5165 40.3497 37.5906C41.3345 36.6629 42 35.5264 42 34.2261C42 32.7625 41.1603 31.5111 39.9624 30.52C38.7595 29.5247 37.0878 28.6944 35.1309 28.0502C34.6063 27.8774 34.041 28.1627 33.8683 28.6873C33.6956 29.2119 33.9809 29.7771 34.5055 29.9498C36.3241 30.5486 37.7433 31.2797 38.6874 32.0609C39.6366 32.8462 40 33.5864 40 34.2261C40 34.7963 39.7141 35.4417 38.9783 36.1348C38.2406 36.8298 37.1193 37.5017 35.6506 38.0869C32.7188 39.2552 28.6001 40 24 40C19.3999 40 15.2812 39.2552 12.3494 38.0869C10.8807 37.5017 9.75936 36.8298 9.02167 36.1348C8.28593 35.4417 8 34.7963 8 34.2261C8 33.5864 8.3634 32.8462 9.31257 32.0609C10.2567 31.2797 11.6759 30.5486 13.4945 29.9498Z" fill="black"/>
<path d="M8 22V19H14V17H8V14H6V22H8Z" fill="black"/>
<path d="M42 22V14H40V17H34V19H40V22H42Z" fill="black"/>
</svg>

<svg
  xmlns="http://www.w3.org/2000/svg"
  width="24"
  height="24"
  viewBox="0 0 24 24"
  fill="none"
  stroke="currentColor"
  stroke-width="2"
  stroke-linecap="round"
  stroke-linejoin="round"
>
  <path d="M20 10a4 4 0 1 1 8 0 4 4 0 0 1-8 0" />
  <path d="M19.033 18.156C20.342 16.782 22.127 16 24 16s3.658.782 4.967 2.156C30.274 19.528 31 21.379 31 23.3V26a1 1 0 0 1-1 1h-1.662l-.771 8.095a1 1 0 0 1-.996.905H21.43a1 1 0 0 1-.996-.905L19.663 27H18a1 1 0 0 1-1-1v-2.7c0-1.92.726-3.772 2.033-5.144" />
  <path d="M13.495 29.95a1 1 0 1 0-.626-1.9c-1.957.644-3.629 1.475-4.831 2.47C6.84 31.511 6 32.763 6 34.226c0 1.3.665 2.437 1.65 3.365.983.925 2.351 1.713 3.96 2.354C14.83 41.228 19.21 42 24 42s9.17-.772 12.39-2.055c1.609-.64 2.977-1.428 3.96-2.354.984-.928 1.65-2.065 1.65-3.365 0-1.463-.84-2.715-2.038-3.706-1.203-.995-2.874-1.826-4.831-2.47a1 1 0 1 0-.626 1.9c1.82.599 3.238 1.33 4.182 2.11.95.786 1.313 1.526 1.313 2.166 0 .57-.286 1.216-1.022 1.909-.737.695-1.859 1.367-3.327 1.952C32.719 39.255 28.6 40 24 40c-4.6 0-8.719-.745-11.65-1.913-1.47-.585-2.59-1.257-3.328-1.952C8.286 35.442 8 34.796 8 34.226c0-.64.363-1.38 1.313-2.165.944-.781 2.363-1.512 4.182-2.111" />
  <path d="M8 22v-3h6v-2H8v-3H6v8z" />
  <path d="M42 22v-8h-2v3h-6v2h6v3z" />
</svg>
